trunk/WorldWind/resources/milstd2525/icons/ems/enfacf---------.svg

<?xml version="1.0"?>
<!--
Copyright (C) 2012 United States Government as represented by the Administrator of the
National Aeronautics and Space Administration.
All Rights Reserved.
-->

<!DOCTYPE svg PUBLIC "-//W3C//DTD SVG 1.1//EN" "http://www.w3.org/Graphics/SVG/1.1/DTD/svg11.dtd" >
<!--
MIL-STD-2525 tactical symbol icon image. During icon composition this image is multiplied by the desired frame color 
(e.g. black), then drawn on top of the frame and fill.
-->
<svg xmlns:xlink="http://www.w3.org/1999/xlink" height="400px" viewBox="0 0 400 400" width="400px"><g transform="scale(100) translate(0.74 0.63)"><path d="M1.10993 1.0681 C1.10993 1.05171 1.12942 1.02826 1.1418 1.02826 L1.38481 1.02826     C1.39627 1.02826 1.41668 1.06377 1.41668 1.07208 L1.41668 1.08802 C1.41668 1.11034     1.38481 1.10548 1.38481 1.12387 L1.38481 1.25135 C1.38481 1.26343 1.6318     1.59506 1.6318 1.62183 L1.6318 1.70549 C1.6318 1.78202 1.46326 1.84891 1.37684     1.84891 L1.14977 1.84891 C1.09872 1.84891 1.02488 1.83092 0.993583 1.80989     C0.970977 1.7947 0.894811 1.73852 0.894811 1.70947 L0.894811 1.67362 C0.894811     1.61258 0.984441 1.49752 1.01245 1.44866 C1.02936 1.41915 1.13782 1.24875     1.13782 1.23143 L1.13782 1.12387 C1.13782 1.10535 1.10993 1.1089 1.10993     1.0681 zM1.37684 0.968506 L0.512374 0.968506 L0.512374 1.89273 L2.01423     1.89273 L2.01423 0.968506 L1.84692 0.968506 L1.84692 0.633876 L1.73538 0.633876     L1.73538 0.968506 L1.48838 0.968506 L1.48838 0.633876 L1.37684 0.633876 z" style="fill:rgb(255,255,255)"/><path d="M1.37683 0.633874 L1.48837 0.633874 L1.48837 0.968504 L1.73536 0.968504 L1.73536     0.633874 L1.84691 0.633874 L1.84691 0.968504 L2.01422 0.968504 L2.01422 1.89272     L0.512363 1.89272 L0.512363 0.968504 L1.37683 0.968504 zM0.48448 1.92459     L2.04211 1.92459 L2.04211 0.936633 L1.88276 0.936633 L1.88276 0.602003 L1.7035     0.602003 L1.7035 0.936633 L1.52423 0.936633 L1.52423 0.602003 L1.34496 0.602003     L1.34496 0.936633 L0.48448 0.936633 z" style="fill:rgb(0,0,0)"/></g><rect height="90" style="fill:rgb(255,255,255);stroke:rgb(255,255,255);stroke-width:1" transform="matrix(1 0 0 1 0 0)" width="141" x="131" y="161"/></svg>

<?xml version="1.0" encoding="UTF-8" standalone="no"?>
<!--
Copyright (C) 2012 United States Government as represented by the Administrator of the
National Aeronautics and Space Administration.
All Rights Reserved.
-->

<!--
MIL-STD-2525 tactical symbol icon image. During icon composition this image is multiplied by the desired frame color 
(e.g. black), then drawn on top of the frame and fill.
-->

<svg
   xmlns:dc="http://purl.org/dc/elements/1.1/"
   xmlns:cc="http://creativecommons.org/ns#"
   xmlns:rdf="http://www.w3.org/1999/02/22-rdf-syntax-ns#"
   xmlns:svg="http://www.w3.org/2000/svg"
   xmlns="http://www.w3.org/2000/svg"
   xmlns:sodipodi="http://sodipodi.sourceforge.net/DTD/sodipodi-0.dtd"
   xmlns:inkscape="http://www.inkscape.org/namespaces/inkscape"
   height="400px"
   viewBox="0 0 400 400"
   width="400px"
   id="svg2"
   version="1.1"
   inkscape:version="0.48.2 r9819"
   sodipodi:docname="enfacf---------.svg">
  <metadata
     id="metadata16">
    <rdf:RDF>
      <cc:Work
         rdf:about="">
        <dc:format>image/svg+xml</dc:format>
        <dc:type
           rdf:resource="http://purl.org/dc/dcmitype/StillImage" />
      </cc:Work>
    </rdf:RDF>
  </metadata>
  <defs
     id="defs14" />
  <sodipodi:namedview
     pagecolor="#ffffff"
     bordercolor="#666666"
     borderopacity="1"
     objecttolerance="10"
     gridtolerance="10"
     guidetolerance="10"
     inkscape:pageopacity="0"
     inkscape:pageshadow="2"
     inkscape:window-width="640"
     inkscape:window-height="480"
     id="namedview12"
     showgrid="false"
     inkscape:zoom="0.59"
     inkscape:cx="200"
     inkscape:cy="200"
     inkscape:window-x="153"
     inkscape:window-y="165"
     inkscape:window-maximized="0"
     inkscape:current-layer="svg2" />
  <g
     transform="matrix(100,0,0,100,74,63)"
     id="g4"
     style="fill:#ffffff;fill-opacity:1;stroke:#000000;stroke-width:0.06;stroke-miterlimit:4;stroke-opacity:1;stroke-dasharray:0.12, 0.06;stroke-dashoffset:0">
    <path
       inkscape:connector-curvature="0"
       d="m 1.10993,1.0681 c 0,-0.01639 0.01949,-0.03984 0.03187,-0.03984 l 0.24301,0 c 0.01146,0 0.03187,0.03551 0.03187,0.04382 l 0,0.01594 c 0,0.02232 -0.03187,0.01746 -0.03187,0.03585 l 0,0.12748 c 0,0.01208 0.24699,0.34371 0.24699,0.37048 l 0,0.08366 c 0,0.07653 -0.16854,0.14342 -0.25496,0.14342 l -0.22707,0 C 1.09872,1.84891 1.02488,1.83092 0.993583,1.80989 0.970977,1.7947 0.894811,1.73852 0.894811,1.70947 l 0,-0.03585 c 0,-0.06104 0.08963,-0.1761 0.117639,-0.22496 C 1.02936,1.41915 1.13782,1.24875 1.13782,1.23143 l 0,-0.10756 C 1.13782,1.10535 1.10993,1.1089 1.10993,1.0681 z m 0.26691,-0.099594 -0.864466,0 0,0.924224 1.501856,0 0,-0.924224 -0.16731,0 0,-0.33463 -0.11154,0 0,0.33463 -0.247,0 0,-0.33463 -0.11154,0 z"
       style="fill:#ffffff;fill-opacity:1;stroke:#000000;stroke-width:0.06;stroke-miterlimit:4;stroke-opacity:1;stroke-dasharray:0.12, 0.06;stroke-dashoffset:0"
       id="path6" />
    <path
       d="m 0.48448,1.92459 1.55763,0 0,-0.987957 -0.15935,0 0,-0.33463 -0.17926,0 0,0.33463 -0.17927,0 0,-0.33463 -0.17927,0 0,0.33463 -0.86048,0 z"
       style="fill:#ffffff;fill-opacity:1;stroke:#000000;stroke-width:0.06;stroke-miterlimit:4;stroke-opacity:1;stroke-dasharray:0.12, 0.06;stroke-dashoffset:0"
       id="path8"
       inkscape:connector-curvature="0"
       sodipodi:nodetypes="ccccccccccccc" />
  </g>
</svg>
